!!!OTL: 248. Sehnsucht.
!!!COM: Volksmelodie
!!!ARE: Europa, Mitteleuropa, Deutschland
!!!SCT: B0248
!!!TXL: @@DE
!!!YEM: Copyright 1995, estate of Helmut Schaffrath.
**kern	**text
*ICvox	*
*Ivox	*
*M4/4	*
*met(c)	*
*clefG2	*
*k[b-]	*
*F:	*
!LO:TX:a:t=Mäßig langſam.	!
{8cc	Ach,
8b-	aus
=1	=1
4.a	die-
8g	-ſes
(8f	Tha-
4dd)	.
8cc	-les
=2	=2
4cc	Gründen,
4b-	.
4r}	.
{8g	die
8f	der
=3	=3
4.e	kal-
8g	-te
4.cc	Ne-
8g	-bel
=4	=4
(4b-/	drückt,
4a)	.
4r}	.
{8bn	könnt
8b	ich
=5	=5
4.cc	doch
8cc	den
4dd	Ausgang
4g	.
=6	=6
4.ee	fin-
8ee}	-den,
{(8eeL	ach
8ffJ)	.
8a/L	wie
8ddJ	.
=7	=7
(4cc	fühlt'
16ddqqL	.
16ccqqJ	.
8bny)	.
8cc	ich
4.ee	mich
8dd	be-
=8	=8
4cc	-glückt!
4r	.
4r}	.
{8cc	Dort
8cc	er-
=9	=9
4.ee	-blick'
8ee	ich
8ffL	ſchö-
8eeJ	.
8ddL	-ne
8ccJ	.
=10	=10
4ff	Hü-
4cc	-gel,
4r}	.
{8cc	e-
8cc	-wig
=11	=11
4.b-	jung
8b-	und
(4b-	e-
16aqqL	.
16b-qqJ	.
8cc)	.
8b-	-wig
=12	=12
2a	grün;
4r}	.
{8a	hätt'
8a	ich
=13	=13
4b-	Schwingen,
4dd	.
4.ff	hätt'
8ee-	ich
=14	=14
4cc#	Flü-
4dd	-gel,
8r}	.
{(8ddL	nach
8eenJ)	.
8ff	den
=15	=15
4.ff	Hü-
8a	-geln
4.cc	ʒög'
8e	ich
=16	=16
2f	hin!
4r}	.
==	==
!!!AGN: Stimmungs - Lied, Sehnsucht
!!!GTL: Trauerlieder (Elegien) und Stimmungslieder
!!!ONB: ESAC (Essen Associative Code) Database: BOEHME
!!!AMT: simple quadruple
!!!AIN: vox
!!!EED: Helmut Schaffrath
!!!EEV: 1.0
!!@@COMMENT:"Gedicht von Friedrich v. Schiller 1801. Außer der hier ſtehenden Volksweiſe giebts noch
!!Melodien von Reichardt 1810, Conradin Kreutʒer u. A."
!!@@END:
!!!Text: F. von Schiller
!!!URL-scan: https://archive.org/details/BoehmeVtLieder1895/page/n217/mode/2up
!!!ENC: Anna Maria Matuszewska
!!!EEV: 2024/03/07
*-	*-
